!!!COM: Haydn, Franz Joseph
!!!OTL: String Quartet in B-flat major
!!!OPS: Opus 1
!!!ONM: No. 1
!!!OMD: Allegro
!!!OMV: 1
!!!SCT: H III:1
!!!SCA: Thematisch-bibliographisches Werkevererzeichnis (A. van Hoboken)
!!!YOR: Bremner Edition, 1772
!!!ENC: Frances Bennion
!!!CDT: 1732/3/31/-1809/5/31/
!!!CNT: Oesterreich
!!!YEC: Copyright (c) 1994, 2000 Center for Computer Assisted Research in the Humanities
!!!YEM: Rights to all derivative editions reserved.
!!!YEM: Refer to licensing agreement for further details.
!!!YEN: United States of America
**kern	**kern	**kern	**kern
*k[b-e-]	*k[b-e-]	*k[b-e-]	*k[b-e-]
*B-:	*B-:	*B-:	*B-:
*clefF4	*clefC3	*clefF	*clefF
*M6/8	*M6/8	*M6/8	*M6/8
2r	2r	2r	2r
8r	8r	8r	8r
8BB-	8B-	8B-	8B-
=1	=1	=1	=1
4BB-	4B-	4B-	4B-
8D	8d	8d	8d
4D	4d	4d	4d
8F	8f	8f	8f
=2	=2	=2	=2
4F	4f	4f	4f
8B-	8b-	8b-	8b-
4B-	4b-	4b-	4b-
8r	8r	8dd	8ff
=3	=3	=3	=3
2r	2r	4dd	8ff
.	.	.	8bb-
.	.	8ee-	8gg
.	.	4dd	4ff
8r	8r	.	.
8F	8b-	8dd	8r
=4	=4	=4	=4
8F	8a	8cc	2r
8F	8b-	8dd	.
8F	8cc	8ee-	.
4BB-	4b-	4dd	.
.	.	.	8r
8BB-	8B-	8B-	8B-
=5	=5	=5	=5
4BB-	4B-	4B-	4B-
8D	8d	8d	8d
4D	4d	4d	4d
8F	8f	8f	8f
=6	=6	=6	=6
4F	4f	4f	4f
8B-	8b-	8b-	8b-
4B-	4b-	4b-	4b-
8r	8r	8b-	8dd
=7	=7	=7	=7
2r	2r	4a	8cc
.	.	.	8ff
.	.	8b-	8dd
.	.	4a	4cc
8r	8r	.	.
8F	8b-	8dd	8r
=8	=8	=8	=8
8F	8a	8cc	2r
8F	8b-	8dd	.
8F	8cc	8ee-	.
4BB-	4b-	4dd	.
.	.	.	8r
8r	8r	8r	8dd
=9	=9	=9	=9
4r	4r	8dd	8bb-
.	.	8b-	8gg
8B-	8b-	8g	8ee
8A	8a	8f	8ff
8F	8f	8a	8cc
8r	8r	8r	8cc
=10	=10	=10	=10
4r	4r	8b-	8gg
.	.	8g	8ee
8C	8g	8e	8b-
8F	8f	4f	8a
8A	8a	.	8cc
8r	8r	8r	8cc
=11	=11	=11	=11
4.B-	4.b-	8d	8dd
.	.	8g	8b-
.	.	8b-	8g
4.A	4.a	8c	8cc
.	.	8f	8a
.	.	8a	8f
=12	=12	=12	=12
4G	4g	8B-	8e
.	.	8e	8b-
8C	8c	8e	8b-
4F	4f	4f	8b-
.	.	.	8a
8r	8r	8r	8cc
=13	=13	=13	=13
8C	4.g	4.r	8bb-
8c	.	.	8gg
8B-	.	.	8ee
8A	8a	8c	8ff
8G	8g	8e	8cc
8F	8f	8f	8cc
=14	=14	=14	=14
8E	8e	8c	8gg
8C	8c	8g	8ee
8E	8e	8g	8b-
4F	4f	8f	8a
.	.	8a	8cc
8r	8r	8a	8cc
=15	=15	=15	=15
2.r	2.r	8b-	8dd
.	.	8b-	8dd
.	.	8cc	8ee
.	.	8dd	8ff
.	.	8dd	8ff
.	.	8ee	8gg
=16	=16	=16	=16
2.r	2.r	8ff	8aa
.	.	8ff	8aa
.	.	8gg	8bb-
.	.	4aa	4ccc
.	.	8r	8r
=17	=17	=17	=17
8C	8g	8e	16bb-
.	.	.	16gg
8C	8g	8e	16ee
.	.	.	16cc
8C	8g	8e	16b-
.	.	.	16g
8C	8a	8f	4f
8C	8a	16cc	.
.	.	16a	.
8C	8a	16g	8r
.	.	16f	.
=18	=18	=18	=18
8C	8g	8e	16bb-
.	.	.	16gg
8C	8g	8e	16ee
.	.	.	16cc
8C	8g	8e	16b-
.	.	.	16g
8C	8a	8f	4f
8C	8a	16cc	.
.	.	16a	.
8C	8a	16g	8r
.	.	16f	.
=19	=19	=19	=19
8C	8g	8e	16bb-
.	.	.	16gg
8C	8g	8e	16ee
.	.	.	16cc
8C	8g	8e	16b-
.	.	.	16g
8C	8a	8f	16f
.	.	.	16a
8C	8a	8f	16cc
.	.	.	16ee
8C	8a	8f	16ff
.	.	.	16aa
=20	=20	=20	=20
8C	8g	8e	16bb-
.	.	.	16gg
8C	8g	8e	16ee
.	.	.	16cc
8C	8g	8e	16b-
.	.	.	16g
4F	8f	4f	4f
.	8r	.	.
8AA	8A	8A	8A
=21	=21	=21	=21
8BB-	8B-	8B-	8B-
8BB-	8B-	8B-	8B-
8C	8c	8c	8c
8D	8d	8d	8d
8F	8f	8f	8f
8AA	8A	8A	8A
=22	=22	=22	=22
4BB-	4B-	8B-	8B-
.	.	8g	8g
8C	8G	8e	8e
4F	4A	8f	8f
.	.	8r	8r
8C	16c	8e	8g
.	16B-	.	.
=23	=23	=23	=23
4F	4A	8f	8f
.	.	8r	8r
8C	16c	8e	8g
.	16B-	.	.
4F	4A	8f	8f
.	.	8r	8r
8C	16c	8e	8g
.	16B-	.	.
=24	=24	=24	=24
4F	4A	8f	8f
.	.	8f	8f
8C	16c	8e	8g
.	16B-	.	.
4F	4A	4f	4f
8r	8r	8r	8ddd
=25	=25	=25	=25
2r	2r	2r	16ddd
.	.	.	16bb
.	.	.	16gg
.	.	.	16ff
.	.	.	16dd
.	.	.	16b
.	.	.	4g
8r	8r	8r	.
8G	8B	8d	8r
=26	=26	=26	=26
8G	8B	8d	2r
8G	8c	8e-	.
8G	8d	8f	.
4C	4c	4e-	.
.	.	.	8r
8r	8r	8r	8ccc
=27	=27	=27	=27
2r	2r	2r	16ccc
.	.	.	16aa
.	.	.	16ff
.	.	.	16ee-
.	.	.	16cc
.	.	.	16a
.	.	.	4f
8r	8r	8r	.
8F	8A	8c	8r
=28	=28	=28	=28
8F	8A	8c	2r
8F	8B-	8d	.
8F	8c	8e-	.
4BB-	4B-	4d	.
.	.	.	8r
8D	8B-	8r	8b-
=29	=29	=29	=29
4.E-	8B-	4r	8g
.	8c	.	8e-
.	8c	8cc	4.r
4.F	8c	8a	.
.	8d	8f	.
.	8d	8r	8dd
=30	=30	=30	=30
4.G	8d	4r	8b-
.	8e-	.	8g
.	8e-	8ee-	4.r
4.A	8e-	8cc	.
.	8f	8a	.
.	8c	8r	8ff
=31	=31	=31	=31
8B-	4d	2r	8ff
2r	.	.	8ff
.	4.r	.	8ff
.	.	.	8bb-
.	.	8r	8ff
8F	8b-	8dd	8r
=32	=32	=32	=32
8F	8a	8cc	2r
8F	8b-	8dd	.
8F	8cc	8ee-	.
4B-	4b-	4dd	.
.	.	.	8r
8r	8r	8r	8ff
=33	=33	=33	=33
2r	2r	2r	8ff
.	.	.	16gg
.	.	.	16ff
.	.	.	16gg
.	.	.	16ff
.	.	.	8bb-
8r	8r	8r	8ff
8F	8dd	8ff	8r
=34	=34	=34	=34
8F	8dd	8ff	2r
8F	8cc	8ee-	.
8F	8b-	8dd	.
4F	4a	4cc	.
.	.	.	8r
8r	8r	8r	8ff
=35	=35	=35	=35
4r	4r	4r	8gg-
.	.	.	8ff
8F	8a	8cc	4.r
8E	8b-	8dd-	.
8F	8a	8cc	.
8r	8r	8r	8ff
=36	=36	=36	=36
4r	4r	4r	8gg-
.	.	.	8ff
8F	8a	8cc	4.r
8E	8b-	8dd-	.
8F	8a	8cc	.
8F	8f	8f	8f
=37	=37	=37	=37
4B-	4b-	4b-	4b-
8F	8f	8f	8f
4D-	4d-	4d-	4d-
8BB-	8B-	8B-	8B-
=38	=38	=38	=38
8G-	8g-	8g-	8g-
8F	8f	8f	8f
8E	8e	8e	8e
4F	4f	4f	4f
8r	8d-	8e	8b-
=39	=39	=39	=39
4FF	4c	4f	8a
.	.	.	8ff
8r	8d-	8e	8b-
4FF	4c	4f	8a
.	.	.	8ff
8r	8d-	8e	8b-
=40	=40	=40	=40
4FF	4c	4f	8a
.	.	.	8ff
8r	8d-	8e	8b-
8FF	4c	8f	8a
8r	.	8r	8r
8BB-	8B-	8B-	8B-
=41	=41	=41	=41
4BB-	4B-	4B-	4B-
8D	8d	8d	8d
4D	4d	4d	4d
8F	8f	8f	8f
=42	=42	=42	=42
4F	4f	4f	4f
8B-	8b-	8b-	8b-
4B-	4b-	4b-	4b-
8r	8r	8dd	8ff
=43	=43	=43	=43
2r	2r	4dd	8ff
.	.	.	8bb-
.	.	8ee-	8gg
.	.	4dd	4ff
8r	8r	.	.
8F	8b-	8dd	8r
=44	=44	=44	=44
8F	8a	8cc	2r
8F	8b-	8dd	.
8F	8cc	8ee-	.
4BB-	4b-	4dd	.
.	.	.	8r
8BB-	8B-	8B-	8B-
=45	=45	=45	=45
4BB-	4B-	4B-	4B-
8E-	8e-	8e-	8e-
4E-	4e-	4e-	4e-
8G	8g	8g	8g
=46	=46	=46	=46
4G	4g	4g	4g
8B-	8b-	8b-	8b-
4B-	4b-	4b-	4b-
8r	8r	8ee-	8gg
=47	=47	=47	=47
2r	2r	8ee-	8gg
.	.	8gg	8bb-
.	.	8ee-	8gg
.	.	4dd	4ff
8r	8r	.	.
8F	8b-	8dd	8r
=48	=48	=48	=48
8F	8a	8cc	2r
8F	8b-	8dd	.
8F	8cc	8ee-	.
4B-	4b-	4dd	.
.	.	.	8r
8r	8r	8r	8dd
=49	=49	=49	=49
4.c	4.g	4.b-	8bb-
.	.	.	8gg
.	.	.	8ee
4.F	4.f	4.a	8ff
.	.	.	8cc
.	.	.	8cc
=50	=50	=50	=50
4.B-	4.f	4.a-	8aa-
.	.	.	8ff
.	.	.	8dd
4.E-	4.e-	4.g	8ee-
.	.	.	8b-
.	.	.	8b-
=51	=51	=51	=51
4.e-	4.ee-	8g	8gg
.	.	8cc	8ee-
.	.	8ee-	8cc
4.d	4.dd	8f	8ff
.	.	8b-	8dd
.	.	8dd	8b-
=52	=52	=52	=52
4c	4cc	8e-	8a
.	.	8a	8ee-
8F	8cc	8a	8ee-
4B-	4b-	4b-	8dd
.	.	.	8b-
8r	8r	8d	8f
=53	=53	=53	=53
2.r	2.r	8e-	8g
.	.	8e-	8g
.	.	8f	8a
.	.	8g	8b-
.	.	8g	8b-
.	.	8a	8cc
=54	=54	=54	=54
2.r	2.r	8b-	8dd
.	.	8b-	8dd
.	.	8cc	8ee-
.	.	4dd	4ff
.	.	8r	8r
=55	=55	=55	=55
8F	8c	8A	16ee-
.	.	.	16cc
8F	8c	8A	16a
.	.	.	16f
8F	8c	8A	16e-
.	.	.	16c
8F	8d	8B-	4B-
8F	8d	16f	.
.	.	16d	.
8F	8d	16c	8r
.	.	16B-	.
=56	=56	=56	=56
8F	8c	8A	16ee-
.	.	.	16cc
8F	8c	8A	16a
.	.	.	16f
8F	8c	8A	16e-
.	.	.	16c
8F	8d	8B-	4B-
8F	8d	16f	.
.	.	16d	.
8F	8d	16c	8r
.	.	16B-	.
=57	=57	=57	=57
8F	8c	8A	16ee-
.	.	.	16cc
8F	8c	8A	16a
.	.	.	16f
8F	8c	8A	16e-
.	.	.	16c
8F	8d	8B-	16B-
.	.	.	16d
8F	8d	8B-	16f
.	.	.	16a
8F	8d	8B-	16b-
.	.	.	16dd
=58	=58	=58	=58
8F	8c	8A	16ee-
.	.	.	16cc
8F	8c	8A	16a
.	.	.	16f
8F	8F	8A	16e-
.	.	.	16c
4B-	4B-	4B-	4B-
8F	8f	8f	8f
=59	=59	=59	=59
8G	8g	8g	8g
8G	8g	8g	8g
8A	8a	8a	8a
8B-	8b-	8b-	8b-
8d	8dd	8dd	8dd
8D	8d	8f	8f
=60	=60	=60	=60
4E-	4e-	8g	8g
.	.	8cc	8cc
8F	8c	8a	8a
8BB-	8d	8b-	8b-
8r	8r	8r	8r
8FF	8F	8A	8cc
=61	=61	=61	=61
8BB-	8B-	8B-	8b-
8r	8r	8r	8r
8FF	8F	8A	8cc
8BB-	8B-	8B-	8b-
8r	8r	8r	8r
8FF	8F	8A	8cc
=62	=62	=62	=62
4BB-	4B-	8B-	8b-
.	.	8B-	8b-
8FF	8F	8A	8cc
4BB-	4B-	4B-	4b-
8r	8r	8r	8r
==	==	==	==
*-	*-	*-	*-
!!!RWG1: This file contains only pitch and duration data.
!!!RWG2: Transposing instruments are not transposed.
!!!RWG3: Spines may have incompatible meters.
!!!RWG4: Durations of rests and tied notes may be interpreted.
!!!RWG: Key is interpreted using the Humdrum key tool.
!!!GTL: 10 Divertimentos
!!!OPT: La chasse
!!!AFT: stage1
!!!END: 1997/04/15
!!!KEY: 4173254855
!!!EMD: Converted from MuseData to Humdrum Dec 16, 2000, by Andreas Kornstaedt using muse2kern.
!!!EMD: Manual editing by Craig Sapp, Nov 2001
